packages/assets/static/images/icons/shopping-cart.svg

<svg width="24" height="24" viewBox="0 0 24 24" xmlns="http://www.w3.org/2000/svg">
<path d="M21.9492 5.89309C21.8788 5.80884 21.7908 5.74108 21.6913 5.69458C21.5918 5.64809 21.4834 5.62401 21.3736 5.62402H6.24985L5.67985 2.48996C5.64845 2.31715 5.5574 2.16084 5.42257 2.04828C5.28773 1.93572 5.11767 1.87405 4.94203 1.87402H2.6236C2.42468 1.87402 2.23392 1.95304 2.09327 2.09369C1.95261 2.23435 1.8736 2.42511 1.8736 2.62402C1.8736 2.82294 1.95261 3.0137 2.09327 3.15435C2.23392 3.29501 2.42468 3.37402 2.6236 3.37402H4.3111L6.70735 16.5262C6.77793 16.9163 6.95031 17.2808 7.20703 17.5828C6.8527 17.9137 6.59696 18.3363 6.46815 18.8038C6.33935 19.2712 6.34252 19.7652 6.47731 20.2309C6.61211 20.6967 6.87326 21.116 7.23181 21.4423C7.59036 21.7687 8.0323 21.9894 8.50862 22.08C8.98494 22.1705 9.47703 22.1274 9.93033 21.9553C10.3836 21.7832 10.7804 21.489 11.0767 21.1052C11.373 20.7214 11.5572 20.2631 11.6089 19.781C11.6606 19.2989 11.5777 18.8119 11.3695 18.374H15.6277C15.4599 18.7253 15.373 19.1097 15.3736 19.499C15.3736 20.0182 15.5276 20.5257 15.816 20.9574C16.1044 21.3891 16.5144 21.7255 16.9941 21.9242C17.4737 22.1229 18.0015 22.1749 18.5107 22.0736C19.0199 21.9723 19.4876 21.7223 19.8548 21.3552C20.2219 20.9881 20.4719 20.5203 20.5732 20.0111C20.6744 19.5019 20.6225 18.9741 20.4238 18.4945C20.2251 18.0148 19.8886 17.6049 19.457 17.3164C19.0253 17.028 18.5178 16.874 17.9986 16.874H8.92078C8.74514 16.874 8.57508 16.8123 8.44025 16.6998C8.30542 16.5872 8.21437 16.4309 8.18297 16.2581L7.88578 14.624H18.7608C19.2877 14.6239 19.7979 14.4389 20.2024 14.1013C20.6069 13.7636 20.88 13.2946 20.9742 12.7762L22.1142 6.50809C22.1335 6.39975 22.1287 6.28849 22.1002 6.18221C22.0717 6.07592 22.0202 5.97721 21.9492 5.89309ZM10.1236 19.499C10.1236 19.7215 10.0576 19.939 9.934 20.124C9.81038 20.309 9.63468 20.4532 9.42912 20.5384C9.22355 20.6235 8.99735 20.6458 8.77912 20.6024C8.56089 20.559 8.36044 20.4519 8.2031 20.2945C8.04577 20.1372 7.93862 19.9367 7.89521 19.7185C7.8518 19.5003 7.87408 19.2741 7.95923 19.0685C8.04438 18.8629 8.18857 18.6872 8.37358 18.5636C8.55859 18.44 8.77609 18.374 8.9986 18.374C9.29696 18.374 9.58311 18.4925 9.79409 18.7035C10.0051 18.9145 10.1236 19.2007 10.1236 19.499ZM19.1236 19.499C19.1236 19.7215 19.0576 19.939 18.934 20.124C18.8104 20.309 18.6347 20.4532 18.4291 20.5384C18.2235 20.6235 17.9973 20.6458 17.7791 20.6024C17.5609 20.559 17.3604 20.4519 17.2031 20.2945C17.0458 20.1372 16.9386 19.9367 16.8952 19.7185C16.8518 19.5003 16.8741 19.2741 16.9592 19.0685C17.0444 18.8629 17.1886 18.6872 17.3736 18.5636C17.5586 18.44 17.7761 18.374 17.9986 18.374C18.297 18.374 18.5831 18.4925 18.7941 18.7035C19.0051 18.9145 19.1236 19.2007 19.1236 19.499ZM19.4986 12.5081C19.4671 12.6814 19.3757 12.8381 19.2402 12.9507C19.1048 13.0633 18.9341 13.1247 18.758 13.124H7.61297L6.52266 7.12402H20.4745L19.4986 12.5081Z"/>
</svg>

<svg viewBox="0 0 24 24" xmlns="http://www.w3.org/2000/svg" aria-hidden="true" fill="currentColor"><path d="M21.95 5.893a.75.75 0 0 0-.576-.269H6.25L5.68 2.49a.75.75 0 0 0-.738-.616H2.624a.75.75 0 1 0 0 1.5H4.31l2.396 13.152c.07.39.243.755.5 1.057a2.624 2.624 0 1 0 4.163.791h4.258a2.625 2.625 0 1 0 2.37-1.5H8.922a.75.75 0 0 1-.738-.616l-.297-1.634H18.76a2.25 2.25 0 0 0 2.213-1.848l1.14-6.268a.75.75 0 0 0-.165-.615M10.123 19.5a1.125 1.125 0 1 1-2.25 0 1.125 1.125 0 0 1 2.25 0m9 0a1.125 1.125 0 1 1-2.25 0 1.125 1.125 0 0 1 2.25 0m.375-6.99a.75.75 0 0 1-.741.615H7.613l-1.09-6h13.952z"/></svg>
